X: 1
T: Beechgrove
M: 4/4
L: 1/8
R: reel
K: Dmaj
ABc|:dF~F2 A2 FA|GBAG FDFA|~B2GB EBGE|FAdF EABc|
dF~F2 A2 FA|GBAG FDFA|~B2ge fdAF|1EDCE DABc:|2EDCE D2FG||
Addc dABd|ABde fdAF|EB~B2GABd|cBAF EABc|
dF~F2 A2 FA|GBAG FDFA|~B2ge fdAF|1EDCE D2FG:|2EDCE D||
